!!!!SEGMENT: pl-wn--mus-iii-72-534--001-003_zarebski-juliusz--etrennes-op-27-menuet.krn
!!!cenid: 18xx:3551
!!!COM: Zarębski, Juliusz
!!!COM-rismid: pe30020631
!!!CDT:
!!!CNT:
!!!OTL: Etrennes op. 27
!!!OMV: 003
!!!PDT:
!!!AGN:
!!!SMS-siglum: PL-Wn
!!!SMS-shelfmark: Mus.III.72.534
!!!SMS-shelfwork: 001-003 W
!!!SMS-variant:
!!!SMS-altvar:
!!!NIFC-rismid:
!!!URL-scan: https://polona.pl/item/etrennes-six-morceaux-d-execution-facile-pour-piano-oeuvre-27,MTA4MzU2NzI5/18/#info:metadata
!!!ONB-nifc:
!!!key: E-
**kern	**dynam	**kern	**dynam
*part2	*part2	*part1	*part1
*staff2	*	*staff1	*
*I"Piano	*	*I"Piano	*
*I'pf	*	*I'pf	*
*ICklav	*	*ICklav	*
*Ipiano	*	*Ipiano	*
*clefF4	*	*clefG2	*
*E-:	*	*E-:	*
*k[b-e-a-]	*	*k[b-e-a-]	*
*M3/4	*	*M3/4	*
=1	=1	=1	=1
*MM104	*	*MM104	*
!	!	!LO:TX:a:B:t=Allegro. ([half]. = 52)	!
!	!	!LO:TX:b:i:t=dolce e grazioso	!
(8E-\L	.	(4g/	.
8B-\	.	.	.
.	.	8qa-/	.
8e-\	.	8g/L	.
8B-\	.	8f/	.
8e-\	.	8g/	.
8B-\J)	.	8a-/J	.
=2	=2	=2	=2
(8A-\L	.	4f/	.
8B-\	.	.	.
8d\	.	8b-'\)	.
8B-\	.	8r	.
8d\	.	4r	.
8B-\J)	.	.	.
=3	=3	=3	=3
(8G\L	.	(4cc\	.
8B-\	.	.	.
.	.	8qdd/	.
8e-\	.	8cc\L	.
8B-\	.	8b-\	.
8e-\	.	8cc\	.
8B-\J)	.	8ee-\J	.
=4	=4	=4	=4
(8F\L	.	2dd\	.
8B-\	.	.	.
8c\	.	.	.
8B-\	.	.	.
8c\	.	4a-/)	.
8B-\J)	.	.	.
!LO:LB:g=original	!	!	!
=5	=5	=5	=5
(8E-\L	.	(4g/	.
8G\	.	.	.
8Bn\	.	4dd\	.
8G\	.	.	.
8c\	.	4cc\	.
8G\J)	.	.	.
=6	=6	=6	=6
(8D\L	.	4b-\	.
8F\	.	.	.
8B-X\	.	4f/	.
8D\	.	.	.
8E-\	.	4g/)	.
8B-\J)	.	.	.
=7	=7	=7	=7
(8F\L	.	(2an/	.
8e-\	.	.	.
8f\	.	.	.
8e-\	.	.	.
8f\	.	8b-\L	.
8e-\J)	.	8cc\J	.
=8	=8	=8	=8
(8B-\L	.	2b-\)	.
8d\	.	.	.
8f\	.	.	.
8d\	.	.	.
8f\	.	4bn\	.
8d\J)	.	.	.
!LO:LB:g=original	!	!	!
=9	=9	=9	=9
(8B-\L	.	(4cc\	.
8en\	.	.	.
.	.	8qdd-X/	<
8g\	.	8cc\L	.
8e\	.	8bn\	.
8g\	.	8cc\	.
8e\J)	.	8ddn\J	.
=10	=10	=10	=10
(8B-\L	.	4cc\	.
8en\	.	.	.
8g\	.	8gg'\)	.
8e\	.	8r	.
8g\	.	4gg\	[[
8e\J)	.	.	.
*clefG2	*	*	*
=11	=11	=11	=11
(8B-/L	.	(4aa-\	.
8f/	.	.	.
.	.	8qbb-/	.
8a-/	.	8aa-\L	.
8f/	.	8gg\	.
8a-/	.	8aa-\	.
8f/J)	.	8ccc\J	.
=12	=12	=12	=12
(8A-/L	.	2dd\)	.
8d/	.	.	.
8f/	.	.	.
8b-/	.	.	.
8f/	.	4ccc\	.
8d/J)	.	.	.
!LO:LB:g=original	!	!	!
=13	=13	=13	=13
(8G/L	.	(8ccc\L	.
8e-/J	.	8bb-\)	>
8g'/)	.	(8bb-\	.
8r	.	8dd\	.
4r	.	8ee-\	.
.	.	8gg\J)	.
*clefF4	*	*	*
=14	=14	=14	=14
(8F\L	.	(8gg\L	.
8d\J	.	8ff\)	.
8f'\)	.	(8ff\	.
8r	.	8an\	.
4r	.	8b-\	.
.	.	8dd\J)	]]
=15	=15	=15	=15
(8F\L	.	(8dd\L	.
8e-\J	.	8cc\)	.
8f'\)	.	(8cc\	.
8r	.	8g\	.
4r	.	8an\	.
.	.	8cc\J)	.
=16	=16	=16	=16
(8B-\L	.	(8cc\L	.
8d\J	.	8b-\)	.
8f'\)	.	(8b-\	.
8r	.	8an\)	.
4r	.	(8a\	.
.	.	8b-\J)	.
!LO:LB:g=original	!	!	!
=17	=17	=17	=17
(2B-\	.	(2b-\	.
4BB-/	.	4B-/	.
=18	=18	=18	=18
2C-X/	.	2c-X/	.
4A-X\)	.	4a-X/)	.
=19	=19	=19	=19
(4.G-X\	.	(4.g-X/	.
8F\	.	8f/	.
4E-\)	.	4e-/)	.
=20	=20	=20	=20
(2D\	.	(2d/	.
4E-\)	.	4e-/)	.
=21	=21	=21	=21
(2.BB-/	.	(2.F/ 2.B- 2.d	.
=22	=22	=22	=22
2.EE-/	.	2.G-X/ 2.B- 2.e-	.
=23	=23	=23	=23
[2.BBB-/	.	[2.B-/ [2.d [2.f	.
=24	=24	=24	=24
2BBB-/])	.	2B-/]) 2d] 2f]	.
4r	.	4f#X/	.
!LO:LB:g=original	!	!	!
=25	=25	=25	=25
(8E-\L	.	(4g/	.
8B-\	.	.	.
.	.	8qa-/	.
8e-\	.	8g/L	.
8B-\	.	8fn/	.
8e-\	.	8g/	.
8B-\J)	.	8a-/J	.
=26	=26	=26	=26
(8E-\L 8A-	.	4f/	.
8B-\	.	.	.
8d\	.	8b-'\)	.
8B-\	.	8r	.
8d\	.	4r	.
8B-\J)	.	.	.
=27	=27	=27	=27
(8E-\L 8G	.	(4cc\	.
8B-\	.	.	.
.	.	8qdd/	.
8e-\	.	8cc\L	.
8B-\	.	8b-\	.
8e-\	.	8cc\	.
8B-\J)	.	8ee-\J	.
=28	=28	=28	=28
(8E-\L 8F	.	2dd\	.
8B-\	.	.	.
8c\	.	.	.
8B-\	.	.	.
8c\	.	4a-/)	.
8B-\J)	.	.	.
!LO:LB:g=original	!	!	!
=29	=29	=29	=29
(8E-\L	.	(4g/	<
8G\	.	.	.
8Bn\	.	4dd\	.
8G\	.	.	.
8c\	.	4cc\	[[
8G\J)	.	.	.
=30	=30	=30	=30
(8D\L	.	4b-X\	>
8F\	.	.	.
8B-X\	.	4f/	.
8D\	.	.	.
8E-\	.	4g/)	]]
8B-\J)	.	.	.
=31	=31	=31	=31
(8F\L	.	(2an/	.
8e-\	.	.	.
8f\	.	.	.
8e-\	.	.	.
8f\	.	8b-\L	.
8e-\J)	.	8cc\J	.
=32	=32	=32	=32
(8B-\L	.	2b-\)	.
8d\	.	.	.
8f\	.	.	.
8d\	.	.	.
8f\	.	4bn\	.
8d\J)	.	.	.
=33	=33	=33	=33
(8B-\L	.	(4cc\	<
8en\	.	.	.
.	.	8qdd-X/	.
8g\	.	8cc\L	.
8e\	.	8bn\	.
8g\	.	8cc\	.
8e\J)	.	8dd-\J	[[
!LO:LB:g=original	!	!	!
=34	=34	=34	=34
(>8A-\L	.	4ddn\	mf
8d\	.	.	.
8f\	.	4aa-\	.
8b-<\	.	.	.
8f\	.	4gg\	.
8d\J)	.	.	.
=35	=35	=35	=35
(8G\L	.	4ff\	>
8B-\	.	.	.
8e-\	.	4ee-\	.
8g\	.	.	.
8e-\	.	4b-\	]]
8B-\J)	.	.	.
=36	=36	=36	=36
*^	*	*^	*
2.E-/	2GG\	.	2bn/	8e-\L	.
.	.	.	.	8Bn\	.
.	.	.	.	8g\	.
.	.	.	.	[8f\	.
.	4AA-\	.	4cc/)	8f\]	.
.	.	.	.	8c\J	.
*v	*v	*	*	*	*
*	*	*v	*v	*
=37	=37	=37	=37
!	!	!	!LO:HP:t=dim.
(8A-\L	.	(4dd\	>
8e-\	.	.	.
8f\	.	4cc\	.
8e-\	.	.	.
8d\	.	4f/)	.
8c\J	.	.	.
=38	=38	=38	=38
*	*	*^	*
8B-\L	.	(2f#X/	2.c#X\	.
8cn\	.	.	.	.
8B-\	.	.	.	.
8c\	.	.	.	.
8B-\	.	4g/)	.	.
8En\J)	.	.	.	.
*	*	*v	*v	*
!LO:LB:g=original	!	!	!
=39	=39	=39	=39
8F\L	.	(4d/ 4b-	.
8G\	.	.	.
8F\	.	4a-/	.
8G\	.	.	.
8F\	.	4A-/) 4d	.
8BB-\J	.	.	.
=40	=40	=40	=40
(2BB-/	.	(2A-/ 2d	.
4EE-/)	.	4G/) 4e-	.
=41||	=41||	=41||	=41||
*^	*	*	*
2.C/	4r	.	2.G/ 2.c 2.e-	.
.	4CC\	.	.	.
.	4CC\	.	.	.
=42	=42	=42	=42	=42
2.BBn/	4r	.	(4.G/ 4.d 4.g	.
.	4CC\	.	.	.
.	.	.	8f/L	.
.	4CC\	.	8e-/	.
.	.	.	8d/J)	.
=43	=43	=43	=43	=43
2.C/	4r	.	4G/ 4c 4e-	<
.	4CC\	.	(8e-/L	.
.	.	.	8g/)	.
.	4CC\	.	(8g/	.
.	.	.	8cc/J)	[[
=44	=44	=44	=44	=44
2.C/	4r	.	2.d/ 2.f 2.a- 2.bn	.
.	4CC\	.	.	.
.	4CC\	.	.	.
!LO:LB:g=original	!	!	!	!
=45	=45	=45	=45	=45
2.C/	4r	.	4e-/ 4g 4cc	.
.	4CC\	.	(8g\L	<
.	.	.	8cc\)	.
.	4CC\	.	(8cc\	.
.	.	.	8ee-\J)	[[
*v	*v	*	*	*
=46	=46	=46	=46
4r	.	(2a-^\ 2cc 2ff	f
4c'\	.	.	.
4c'\	.	4g\) 4cc 4ee-	.
=47	=47	=47	=47
4r	.	(2a-^\ 2cc 2ff	.
4c'\	.	.	.
4c'\	.	4g\) 4cc 4ee-	.
=48	=48	=48	=48
4r	.	2.f#X/ 2.an 2.dd	.
4c'\	.	.	.
4c'\	.	.	.
=49	=49	=49	=49
!LO:TX:b:i:t=marcato	!	!	!
(4c\	.	4f#X/ 4an 4dd	<
4d\	.	(8a\L	.
.	.	8dd\)	.
4c\	.	(8dd\	.
.	.	8ff#X\J)	[[
=50	=50	=50	=50
4B-\	.	2g^\ 2dd 2gg	.
4c\	.	.	.
4B-\)	.	4g\ 4cc 4ee-	.
!LO:LB:g=original	!	!	!
=51	=51	=51	=51
(4c\	.	4f#X/ 4an 4dd	.
4d\	.	(8a\L	<
.	.	8dd\)	.
4c\	.	(8dd\	.
.	.	8ff#X\J)	[[
=52	=52	=52	=52
4B-\	.	2g^\ 2dd 2gg	.
4c\	.	.	.
4B-\)	.	4g\ 4cc 4ee-	.
=53	=53	=53	=53
4An^\	.	4f#X^</ 4cc 4dd	.
4G^\	.	4e-^</ 4b- 4ee-	.
4F#X^\	.	4e-^</ 4an 4cc	.
=54	=54	=54	=54
4Fn^\	.	4d^</ 4an 4dd	.
4E-^\	.	4d^</ 4g 4b-	.
4C^</	.	4e-^</ 4g 4cc	.
=55	=55	=55	=55
*	*	*^	*
4r	.	(2b-^/	2.c\ 2.f#X	.
[2D\	.	.	.	.
.	.	4an/	.	.
*	*	*v	*v	*
=56	=56	=56	=56
4D\]	.	2.Bn/) 2.g	>]
4D\	.	.	.
4GG/	.	.	.
!LO:LB:g=original	!	!	!
=57	=57	=57	=57
*^	*	*	*
2.D/	4r	.	4Bn/ 4g	p <
.	4GG\	.	(8B/L	.
.	.	.	8f/)	.
.	4GG\	.	(8f/	.
.	.	.	8g/J)	[[
=58	=58	=58	=58	=58
2.E-/	4r	.	2c/ 2f 2a-X	>
.	4GG\	.	.	.
.	4GG\	.	4c/ 4a- 4cc	]]
=59	=59	=59	=59	=59
2.D/	4r	.	4Bn/ 4g 4bn	<
.	4GG\	.	(8B/L	.
.	.	.	8f/)	.
.	4GG\	.	(8f/	.
.	.	.	8g/J)	[[
=60	=60	=60	=60	=60
2.E-/	4r	.	2c/ 2f 2a-	>
.	4GG\	.	.	.
.	4GG\	.	4c/ 4a- 4cc	]]
=61	=61	=61	=61	=61
!	!	!	!	!LO:HP:t=cresc.
2.G/	4r	.	4d/ 4g 4bn	<
.	4GG\	.	(8g\L	.
.	.	.	8b\)	.
.	4GG\	.	(8b\	.
.	.	.	8dd\J)	.
*v	*v	*	*	*
!LO:LB:g=original	!	!	!
=62	=62	=62	=62
4r	.	(2a-^\ 2cc 2ff	f
(4c\	.	.	.
4Bn\)	.	4g\) 4dd	.
=63	=63	=63	=63
4r	.	(2a-^\ 2cc 2ff	.
(4c\	.	.	.
4Bn\)	.	4g\) 4dd	.
=64	=64	=64	=64
*	*	*^	*
4r	.	(2gg^/	2.g\ 2.dd	.
2Bn\	.	.	.	.
.	.	4ff/)	.	.
*	*	*v	*v	*
=65	=65	=65	=65
(4c\	.	4g\ 4cc 4ee-	.
4B-X\	.	(8g\L	.
.	.	8dd\)	.
4c\	.	(8dd\	.
.	.	8ee-\J)	.
=66	=66	=66	=66
4A-\	.	(2g\ 2cc 2ee-	.
4B-\	.	.	.
4A-\)	.	4f\) 4cc 4ff	.
!LO:LB:g=original	!	!	!
=67	=67	=67	=67
(4B-\	.	4f/ 4cc 4dd	.
4A-\	.	(8f/L	.
.	.	8cc/)	.
4B-\	.	(8cc/	.
.	.	8dd/J)	.
=68	=68	=68	=68
4G\	.	(2f/ 2b- 2dd	.
4A-\	.	.	.
4G\)	.	4e-/) 4b- 4ee-	.
=69	=69	=69	=69
!	!	!	!LO:HP:t=dim.
(4A-\	.	4e-/ 4b- 4cc	>
4G\	.	(8e-/L	.
.	.	8b-/)	.
4A-\	.	(8b-/	.
.	.	8cc/J)	.
=70	=70	=70	=70
4F\	.	(2e-/ 2a- 2cc	.
4G\	.	.	.
4F\)	.	4d/) 4a- 4dd	.
=71	=71	=71	=71
(4.G\	.	2.d/ 2.g 2.bn	.
8F\L	.	.	.
8E-\	.	.	.
8D\J	.	.	.
!LO:LB:g=original	!	!	!
=72	=72	=72	=72
4.C/	.	2.e-/ 2.g 2.cc	.
8BB-/L	.	.	.
8AA-/	.	.	.
[8GG/J)	.	.	.
=73	=73	=73	=73
4GG/]	.	2.B-/ 2.c 2.en	p
4GG/	.	.	.
[4CC/	.	.	.
=74	=74	=74	=74
4CC/]	.	2A-/ 2c 2f	.
[2C/	.	.	.
.	.	4cc'^\	.
=75	=75	=75	=75
(4C/]	.	2.F/ 2.A- 2.Bn 2.d	.
4GG/	.	.	.
[4CC/)	.	.	.
=76	=76	=76	=76
4CC/]	.	2G/ 2c 2e-	.
[2C/	.	.	.
.	.	4cc'^\	.
=77	=77	=77	=77
!	!	!LO:TX:b:t=sempre più	!
4C/]	.	2.B-/ 2.c 2.en	p
4GG/	.	.	.
[4CC/	.	.	.
!LO:LB:g=original	!	!	!
=78	=78	=78	=78
4CC/]	.	2A-/ 2c 2f	.
[2C/	.	.	.
.	.	4cc^\	.
=79	=79	=79	=79
4C/]	.	2.F/ 2.A- 2.Bn 2.d	.
4GG/	.	.	.
[4CC/	.	.	.
=80	=80	=80	=80
4CC/]	.	2G/ 2c 2e-	.
[2C/	.	.	.
.	.	4cc^\	.
=81	=81	=81	=81
4C/]	.	(2G/ 2c 2e-	.
[2C/	.	.	.
.	.	4cc\)	.
=82	=82	=82	=82
4C/]	.	(2G/ 2c 2e-	.
2C/	.	.	.
.	.	4cc\)	.
=83	=83	=83	=83
!LO:TX:a:t=ad libitum	!	!	!
(4CC^/	.	2.r	.
4EE-^/	.	.	.
4AA-^/	.	.	.
=84	=84	=84	=84
4GG/	.	2.r	.
4BBn/	.	.	.
4D/)	.	.	.
!LO:LB:g=original	!	!	!
=85	=85	=85	=85
(4C/	.	2.r	.
4E-\	.	.	.
4A-\	.	.	.
=86	=86	=86	=86
4G\	.	2.r	.
4Bn\	.	.	.
4d\)	<	.	.
=87	=87	=87	=87
(4c\	.	2.r	.
4e-\	.	.	.
4a-\	.	.	.
=88	=88	=88	=88
2f#X\	[	2.r	.
4g\)	f	.	.
=89	=89	=89	=89
[2.g^\	>	2.r	.
=90	=90	=90	=90
!LO:TX:t=P:problem: łuk frazowy między 2.g a 4g	!	!	!
2.g\]	]]	2.r	.
=91||	=91||	=91||	=91||
(8E-\L	.	4g/	p
8B-\	.	.	.
.	.	8qa-/	.
8e-\	.	(8g/L	.
8B-\	.	8f/	.
8e-\	.	8g/	.
8B-\J)	.	8a-/J)	.
!LO:LB:g=original	!	!	!
=92	=92	=92	=92
(8A-\L	.	(4f/	.
8B-\	.	.	.
8d\	.	8b-'/)	.
8B-\	.	8r	.
8d\	.	4b-\	.
8B-\J)	.	.	.
=93	=93	=93	=93
(8G\L	.	(4cc\	<
8B-\	.	.	.
.	.	8qdd/	.
8e-\	.	8cc\L	.
8B-\	.	8b-\	.
8e-\	.	8cc\	.
8B-\J)	.	8ee-\J	[[
=94	=94	=94	=94
(8F\L	.	2dd\	>
8B-\	.	.	.
8c\	.	.	.
8B-\	.	.	.
8c\	.	4a-/)	]]
8B-\J)	.	.	.
=95	=95	=95	=95
(8E-\L	.	(4g/	<
8G\	.	.	.
8Bn\	.	4dd\	.
8G\	.	.	.
8c\	.	4cc\	[[
8G\J)	.	.	.
=96	=96	=96	=96
(8D\L	.	4b-X\	>
8F\	.	.	.
8B-X\	.	4f/	.
8D\	.	.	.
8E-\	.	4g/)	]]
8B-\J)	.	.	.
!LO:LB:g=original	!	!	!
=97	=97	=97	=97
(8F\L	.	(2an/	.
8e-\	.	.	.
8f\	.	.	.
8e-\	.	.	.
8f\	.	8b-\L	.
8e-\J)	.	8cc\J	.
=98	=98	=98	=98
(8B-\L	.	2b-\	.
8d\	.	.	.
8f\	.	.	.
8d\	.	.	.
8f\	.	4bn\)	.
8d\J)	.	.	.
=99	=99	=99	=99
(8B-\L	.	(4cc\	.
8en\	.	.	.
.	.	8qdd-X/	.
8g\	.	8cc\L	.
8e\	.	8bn\	.
8g\	.	8cc\	.
8e\J)	.	8dd-\J)	.
=100	=100	=100	=100
(8B-\L	.	(4cc\	.
8en\	.	.	.
8g\	.	8gg\)	.
8e\	.	8r	.
8g\	.	4gg\	<
8e\J)	.	.	.
*clefG2	*	*	*
=101	=101	=101	=101
(8B-/L	.	(4aa-\	.
8f/	.	.	.
.	.	8qbb-/	.
8a-/	.	8aa-\L	.
8f/	.	8gg\	.
8a-/	.	8aa-\	.
8f/J)	.	8ccc\J	[[
!LO:LB:g=original	!	!	!
=102	=102	=102	=102
(8A-/L	.	2dd\	.
8d/	.	.	.
8f/	.	.	.
8b-/	.	.	.
8f/	.	4ccc\)	.
8d/J)	.	.	.
=103	=103	=103	=103
(8G/L	.	(8ccc\L	>
8e-/J	.	8bb-\)	.
8g'/)	.	(8bb-\	.
8r	.	8dd\	.
4r	.	8ee-\	.
.	.	8gg\J)	.
*clefF4	*	*	*
=104	=104	=104	=104
(8F\L	.	(8gg\L	.
8d\J	.	8ff\)	.
8f'\)	.	(8ff\	]
8r	.	8an\	.
4r	.	8b-\	.
.	.	8dd\J)	.
=105	=105	=105	=105
(8F\L	.	(8dd\L	.
8e-\J	.	8cc\)	.
8f\)	.	(8cc\	.
8r	.	8g\	.
4r	.	8an\	.
.	.	8cc\J)	.
=106	=106	=106	=106
(8B-\L	.	(8cc\L	.
8d\J	.	8b-\)	.
8f\)	.	(8b-\	.
8r	.	8an\)	.
4r	.	(8a\	.
.	.	8b-\J)	.
!LO:LB:g=original	!	!	!
=107	=107	=107	=107
(2B-\	.	(2b-\	.
4BB-/	.	4B-/	.
=108	=108	=108	=108
2C-X/	.	2c-X/	.
4A-X\	.	4a-X/	.
=109	=109	=109	=109
4.G-X\	.	4.g-X/	.
8F\	.	8f/	.
4E-'\)	.	4e-'/)	.
=110	=110	=110	=110
(2D\	.	(2d/	.
4E-\)	.	4e-/)	.
=111	=111	=111	=111
(2.BB-/	.	(<2.F/ 2.B- 2.d	.
=112	=112	=112	=112
2.EE-/	.	2.G-X/ 2.B- 2.e-	.
=113	=113	=113	=113
[2.BBB-/)	.	[2.B-/) [2.d [2.f	.
=114	=114	=114	=114
2BBB-/]	.	2B-/] 2d] 2f]	.
4r	.	4f#X/	.
!LO:LB:g=original	!	!	!
=115	=115	=115	=115
(8E-\L	.	(4g/	.
8B-\	.	.	.
.	.	8qa-/	.
8e-\	.	8g/L	.
8B-\	.	8f/	.
8e-\	.	8g/	.
8B-\J)	.	8a-/J	.
=116	=116	=116	=116
(8E-\L 8A-	.	4f/	.
8B-\	.	.	.
8d\	.	8b-'\)	.
8B-\	.	8r	.
8d\	.	4b-\	.
8B-\J)	.	.	.
=117	=117	=117	=117
(8E-\L 8G	.	(4cc\	.
8B-\	.	.	.
.	.	8qdd/	.
8e-\	.	8cc\L	.
8B-\	.	8b-\	.
8e-\	.	8cc\	.
8B-\J)	.	8ee-\J	.
=118	=118	=118	=118
(8E-\L 8F	.	2dd\	.
8B-\	.	.	.
8d\	.	.	.
8B-\	.	.	.
8d\	.	4a-/)	.
8B-\J)	.	.	.
=119	=119	=119	=119
(8E-\L	.	(4g/	.
8G\	.	.	.
8Bn\	.	4dd\	.
8G\	.	.	.
8c\	.	4cc\	.
8G\J	.	.	.
!LO:LB:g=original	!	!	!
=120	=120	=120	=120
8D\L	.	4b-X\	.
8F\	.	.	.
8B-X\	.	4f/	.
8D\	.	.	.
8E-\	.	4g/)	.
8B-\J)	.	.	.
=121	=121	=121	=121
(8F\L	.	(2an/	.
8e-\	.	.	.
8f\	.	.	.
8e-\	.	.	.
8f\	.	8b-\L	.
8e-\J)	.	8cc\J	.
=122	=122	=122	=122
(8B-\L	.	2b-\)	.
8d\	.	.	.
8f\	.	.	.
8d\	.	.	.
8f\	.	4bn\	.
8d\J)	.	.	.
=123	=123	=123	=123
(8B-\L	.	(4cc\	<
8en\	.	.	.
.	.	8qdd-X/	.
8g\	.	8cc\L	.
8e\	.	8bn\	.
8g\	.	8cc\	.
8e\J)	.	8dd-\J	.
*clefG2	*	*	*
=124	=124	=124	=124
(8A-/L	.	4ddn\	.
8d/	.	.	.
8f/	.	4aa-\	.
8b-/	.	.	.
8f/	.	4gg\	[[
8d/J)	.	.	.
!LO:LB:g=original	!	!	!
=125	=125	=125	=125
(8G/L	.	4ff/	.
8B-/	.	.	.
8e-/	.	4ee-/	.
8g/	.	.	.
8e-/	.	4b-'/)	.
8B-/J)	.	.	.
*clefF4	*	*	*
=126	=126	=126	=126
*^	*	*^	*
2.E-/	2GG\	.	(2bn/	8e-\L	.
.	.	.	.	8Bn\	.
.	.	.	.	8g\	.
.	.	.	.	[8f\	.
.	4AA-\	.	4cc/)	8f\]	.
.	.	.	.	8c\J	.
*v	*v	*	*	*	*
*	*	*v	*v	*
=127	=127	=127	=127
!	!	!	!LO:HP:t=dim.
(8A-\L	.	(4dd\	>
8e-\	.	.	.
8f\	.	4cc\	.
8e-\	.	.	.
8d\	.	4f/)	.
8c\J)	.	.	.
=128	=128	=128	=128
*	*	*^	*
(8B-\L	.	(2f#X/	2.c#X\	.
8cn\	.	.	.	.
8B-\	.	.	.	.
8c\	.	.	.	.
8B-\	.	4g/)	.	.
8En\J	.	.	.	.
*	*	*v	*v	*
=129	=129	=129	=129
8F\L	.	(4d/ 4b-	.
8G\	.	.	.
8F\	.	4a-/	.
8G\	.	.	.
8F\	.	4A-/) 4d	.
8BB-\J)	.	.	.
!LO:LB:g=original	!	!	!
=130	=130	=130	=130
(2BB-/	.	(2A-/ 2d	.
4EE-'/)	.	4G'/) 4e-	.
=131	=131	=131	=131
(2B-\	.	(2f\ 2a- 2dd	pp
4E-'\)	.	4g'\) 4ee-	.
=132	=132	=132	=132
(>2BB-\	.	(<2F/> 2A-> 2d-X>	.
4EE-'\)	.	4G'/>) 4e->	.
=133	=133	=133	=133
(2B-\	.	(2f\ 2a- 2dd-X	.
4E-'\)	.	4g'\) 4ee-	.
=134	=134	=134	=134
(2AA-/ 2E-	.	(2A-/ 2c	.
4EE-'/)	.	4B-'/) 4dn	.
=135	=135	=135	=135
(2A-\ 2e-	.	(2a-\ 2cc	.
4E-'\)	.	4b-'\) 4dd	.
=136	=136	=136	=136
(2BB-/ 2D	.	(2G/ 2B-	.
4EE-'/)	.	4F'/) 4A- 4c	.
=137	=137	=137	=137
(2B-\ 2d	.	(2g/ 2b-	.
4E-'\)	.	4f'/) 4a- 4cc	.
!LO:LB:g=original	!	!	!
=138	=138	=138	=138
(2BB-/ 2E-	.	(2G/ 2B-	.
4EE-'/)	.	4A-'/) 4c	.
=139	=139	=139	=139
(2B-\ 2d	.	(2g/ 2b-	.
4E-'\)	.	4f'/) 4a- 4cc	.
=140	=140	=140	=140
(2BB-/ 2E-	.	(2G/ 2B-	.
4EE-'/)	.	4A-'/) 4c	.
=141	=141	=141	=141
(2B-\ 2d	.	(2g/ 2b-	.
4E-'\)	.	4f'/) 4a- 4cc	.
=142	=142	=142	=142
*ped	*	*	*
[2.E-\ [2.B- [2.d	.	4f/ 4a- 4cc	.
.	.	(8f\L	.
.	.	8a-\	.
.	.	8b-\	.
.	.	8cc#X\J	.
=143	=143	=143	=143
2.E-\_ 2.B-_ 2.d_	.	8dd\L	.
.	.	8een\	.
.	.	8ff\	.
.	.	8aa-\	.
.	.	8bb-\	.
.	.	8ccc#X\J	.
!LO:LB:g=original	!	!	!
=144	=144	=144	=144
*	*	*8va	*
2.E-\_ 2.B-_ 2.d_	.	8ddd\L	.
.	.	8eeen\	.
.	.	8fff\	.
.	.	8aaa-\	.
.	.	8bbb-\	.
.	.	8cccc#X\J	.
=145	=145	=145	=145
2.E-\] 2.B-] 2.d]	.	8dddd\L	.
.	.	8eeeen\	.
.	.	8ffff\	.
.	.	8gggg\	.
.	.	8aaaa-\	.
.	.	8dddd\J)	.
*Xped	*	*	*
*clefG2	*	*	*
=146	=146	=146	=146
*ped	*	*	*
4ee-'\ 4bb-	.	4ggg'\ 4eeee-X	.
*	*	*X8va	*
4r	.	4r	.
4r	.	4r	.
=147	=147	=147	=147
4e-'/ 4b-	.	4gg'\ 4eee-	.
4r	.	4r	.
4r	.	4r	.
=148	=148	=148	=148
!LO:TX:a:t=1	!	!	!
2.r	.	2.r	.
*clefF4	*	*	*
=149	=149	=149	=149
4E-'\ 4B-	.	4g'\ 4ee-	.
4r	.	4r	.
4r	.	4r	.
=150	=150	=150	=150
2.EE-/ 2.BB-	.	2.G/ 2.e-	.
*Xped	*	*	*
==	==	==	==
*-	*-	*-	*-
!!!system-decoration: {(s1,s2)}
!!!RDF**kern: < = above
!!!RDF**kern: > = below
!!!ENC: Filip Voros
!!!END: 2022-02-08
!!!AIN: 2 piano
!!!ENC: Natalia Wrzos
!!!END: 2022-02-15
